X: 18368
T: Hunchback, The
R: reel
M: 4/4
K: Dmajor
|:DEFD EB, (3B,B,B,|DEFA BAFA|d2fd (3ddd ed|(3BBB dB AFEF|
DEFD EB, (3B,B,B,|DEFA BAFA|dfef (3gfe dB|AFEF (3DDD D2:|
|:d2fd Adfd|adfd eB (3BAB|dfcd AdFA|EFAc BAFA|
d2fd Adfd|adfd eB (3BAB|dfef (3gfe dB|AFEF (3DDD D2:|

